assets/icons/supported_selectable_icons/logos/financial_institutions/713.svg

<svg xmlns="http://www.w3.org/2000/svg" width="512" height="512" fill="none"><mask id="a" width="332" height="332" x="90" y="90" maskUnits="userSpaceOnUse" style="mask-type:luminance"><path fill="#fff" d="M422 90H90v332h332z"/></mask><g mask="url(#a)"><path fill="#223324" d="M352.833 90H159.167C120.967 90 90 120.967 90 159.167v193.666c0 38.2 30.967 69.167 69.167 69.167h193.666c38.2 0 69.167-30.967 69.167-69.167V159.167C422 120.967 391.033 90 352.833 90"/><path fill="#11C76F" d="M344.073 194.766h-39.818v-40.2h39.818zm9.907-50.297h-59.633v60.204h59.633zm-131.84 30.102h-28.197v25.339h26.673c16.956 0 26.673 8.383 26.673 23.434 0 15.623-9.717 24.006-26.673 24.006h-26.673v-47.63h-29.911v111.073h29.911v-38.104h28.197c34.293 0 53.917-18.862 53.917-50.488 0-29.912-19.624-47.63-53.917-47.63m112.026-9.907h-19.814v20.004h19.814zM185.213 339.649v23.311h-4.405l-11.563-14.134v14.134h-5.323v-23.311h4.405l11.564 14.134v-14.134zm23.495 18.906v4.405h-17.987v-23.311h17.62v4.406h-12.297v5.139h10.829v4.222h-10.829v5.323h12.664zm20.007-7.71h4.956v9.361q-1.927 1.378-4.406 2.203c-1.651.551-3.304.734-4.955.734-2.387 0-4.589-.55-6.425-1.468-2.019-1.101-3.487-2.386-4.588-4.222-1.102-1.835-1.652-3.854-1.652-6.24s.55-4.406 1.652-6.241 2.569-3.304 4.588-4.222c2.019-1.101 4.222-1.468 6.608-1.468q3.03 0 5.507 1.101c1.652.734 3.12 1.652 4.221 2.937l-3.487 3.12c-1.652-1.835-3.671-2.569-6.057-2.569-1.468 0-2.754.367-4.038.917-1.102.551-2.02 1.469-2.754 2.57-.734 1.102-.917 2.386-.917 3.855s.367 2.753.917 3.854c.734 1.101 1.469 2.019 2.754 2.57a8.54 8.54 0 0 0 3.854.918c1.468 0 2.937-.368 4.222-.918zm14.502 11.015c-2.019-1.102-3.488-2.387-4.589-4.223s-1.652-3.855-1.652-6.241c0-2.202.55-4.405 1.652-6.24 1.101-1.836 2.57-3.304 4.589-4.222 2.019-1.101 4.038-1.652 6.607-1.652q3.58 0 6.608 1.652c2.019 1.101 3.488 2.386 4.589 4.222 1.101 1.835 1.652 3.854 1.652 6.24 0 2.203-.551 4.405-1.652 6.241s-2.57 3.305-4.589 4.223c-2.019 1.101-4.038 1.651-6.608 1.651q-3.579-.275-6.607-1.651m10.279-4.039a5.8 5.8 0 0 0 2.569-2.57 8.5 8.5 0 0 0 .918-3.855 8.5 8.5 0 0 0-.918-3.853 5.8 5.8 0 0 0-2.569-2.571c-1.102-.551-2.387-.917-3.672-.917s-2.569.366-3.67.917a5.8 5.8 0 0 0-2.571 2.571 8.55 8.55 0 0 0 0 7.708 5.8 5.8 0 0 0 2.571 2.57c1.101.551 2.385.917 3.67.917s2.57-.366 3.672-.917m-2.203-24.78h5.506l-6.057 4.773h-4.038zm20.006 28.817c-1.836-1.101-3.488-2.386-4.589-4.221-1.101-1.836-1.652-3.855-1.652-6.241s.551-4.405 1.652-6.241 2.57-3.303 4.589-4.221 4.038-1.468 6.424-1.468q3.029 0 5.506 1.101c1.653.734 2.937 1.651 4.039 3.12l-3.487 3.121c-1.653-1.836-3.489-2.754-5.874-2.754a8.5 8.5 0 0 0-3.855.918 5.8 5.8 0 0 0-2.57 2.57 8.5 8.5 0 0 0-.917 3.854c0 1.469.366 2.754.917 3.855a5.8 5.8 0 0 0 2.57 2.569 8.5 8.5 0 0 0 3.855.918c2.385 0 4.221-.918 5.874-2.753l3.487 3.121c-1.102 1.284-2.57 2.386-4.039 3.12q-2.477 1.101-5.506 1.101c-2.386 0-4.405-.551-6.424-1.469m19.641-22.209h5.322v23.311h-5.322zm15.601 22.21c-2.019-1.101-3.488-2.387-4.589-4.222s-1.652-3.855-1.652-6.241c0-2.202.551-4.405 1.652-6.24 1.101-1.836 2.57-3.304 4.589-4.222 2.019-1.101 4.038-1.652 6.608-1.652s4.588.551 6.607 1.652 3.488 2.386 4.59 4.222c1.101 1.835 1.651 3.854 1.651 6.24 0 2.203-.55 4.405-1.651 6.241-1.102 1.835-2.571 3.304-4.59 4.222-2.019 1.101-4.038 1.651-6.607 1.651s-4.589-.733-6.608-1.651m10.279-4.039a5.8 5.8 0 0 0 2.569-2.569 8.5 8.5 0 0 0 .918-3.855 8.5 8.5 0 0 0-.918-3.854 5.8 5.8 0 0 0-2.569-2.57c-1.102-.551-2.387-.918-3.671-.918-1.285 0-2.57.367-3.671.918a5.8 5.8 0 0 0-2.57 2.57 8.5 8.5 0 0 0-.918 3.854c0 1.468.367 2.753.918 3.855a5.8 5.8 0 0 0 2.57 2.569c1.101.551 2.386.918 3.671.918 1.468 0 2.569-.367 3.671-.918m15.418 4.773c-1.651-.551-3.12-1.102-4.221-2.019l1.836-4.038c.917.734 2.202 1.285 3.487 1.835 1.285.367 2.753.734 4.038.734 1.468 0 2.57-.183 3.304-.734.734-.367 1.101-1.101 1.101-1.835 0-.551-.183-1.101-.734-1.469a3.56 3.56 0 0 0-1.652-.918c-.734-.183-1.652-.55-2.753-.733-1.835-.368-3.304-.918-4.406-1.286-1.101-.367-2.019-1.101-2.936-2.019a5.9 5.9 0 0 1-1.285-3.671c0-1.284.367-2.569 1.101-3.671.735-1.101 1.836-2.019 3.304-2.569 1.469-.735 3.304-.918 5.323-.918q2.203 0 4.406.551c1.468.367 2.569.917 3.67 1.468l-1.651 4.038c-2.203-1.285-4.222-1.836-6.425-1.836-1.468 0-2.57.184-3.304.735s-1.101 1.101-1.101 2.019.367 1.468 1.285 1.835 2.019.734 3.854 1.102c1.836.367 3.304.917 4.405 1.284s2.019 1.102 2.937 2.02a5.9 5.9 0 0 1 1.285 3.67c0 1.285-.367 2.57-1.101 3.672-.734 1.101-1.835 2.019-3.304 2.569-1.468.734-3.304.918-5.506.918-1.469 0-3.304-.184-4.957-.734"/></g></svg>

<svg width="512" height="512" viewBox="0 0 512 512" fill="none" xmlns="http://www.w3.org/2000/svg">
<mask id="mask0_3251_2111" style="mask-type:luminance" maskUnits="userSpaceOnUse" x="90" y="90" width="332" height="332">
<path d="M422 90H90V422H422V90Z" fill="white"/>
</mask>
<g mask="url(#mask0_3251_2111)">
<path d="M352.833 90H159.167C120.967 90 90 120.967 90 159.167V352.833C90 391.033 120.967 422 159.167 422H352.833C391.033 422 422 391.033 422 352.833V159.167C422 120.967 391.033 90 352.833 90Z" fill="#223324"/>
<path d="M344.073 194.766H304.255V154.566H344.073V194.766ZM353.98 144.469H294.347V204.673H353.98V144.469ZM222.14 174.571H193.943V199.91H220.616C237.572 199.91 247.289 208.293 247.289 223.344C247.289 238.967 237.572 247.35 220.616 247.35H193.943V199.72H164.032V310.793H193.943V272.689H222.14C256.433 272.689 276.057 253.827 276.057 222.201C276.057 192.289 256.433 174.571 222.14 174.571ZM334.166 164.664H314.352V184.668H334.166V164.664Z" fill="#11C76F"/>
<path d="M185.213 339.649V362.96H180.808L169.245 348.826V362.96H163.922V339.649H168.327L179.891 353.783V339.649H185.213Z" fill="#11C76F"/>
<path d="M208.708 358.555V362.96H190.721V339.649H208.341V344.055H196.044V349.194H206.873V353.416H196.044V358.739H208.708V358.555Z" fill="#11C76F"/>
<path d="M228.715 350.845H233.671V360.206C232.386 361.124 230.918 361.859 229.265 362.409C227.614 362.96 225.961 363.143 224.31 363.143C221.923 363.143 219.721 362.593 217.885 361.675C215.866 360.574 214.398 359.289 213.297 357.453C212.195 355.618 211.645 353.599 211.645 351.213C211.645 348.826 212.195 346.807 213.297 344.972C214.398 343.137 215.866 341.668 217.885 340.75C219.904 339.649 222.107 339.282 224.493 339.282C226.513 339.282 228.348 339.649 230 340.383C231.652 341.117 233.12 342.035 234.221 343.32L230.734 346.44C229.082 344.605 227.063 343.871 224.677 343.871C223.209 343.871 221.923 344.238 220.639 344.788C219.537 345.339 218.619 346.257 217.885 347.358C217.151 348.46 216.968 349.744 216.968 351.213C216.968 352.681 217.335 353.966 217.885 355.067C218.619 356.168 219.354 357.086 220.639 357.637C221.74 358.187 223.025 358.555 224.493 358.555C225.961 358.555 227.43 358.187 228.715 357.637V350.845Z" fill="#11C76F"/>
<path d="M243.217 361.86C241.198 360.758 239.729 359.473 238.628 357.637C237.526 355.801 236.976 353.782 236.976 351.396C236.976 349.194 237.526 346.991 238.628 345.156C239.729 343.32 241.198 341.852 243.217 340.934C245.236 339.833 247.255 339.282 249.824 339.282C252.21 339.282 254.413 339.833 256.432 340.934C258.451 342.035 259.92 343.32 261.021 345.156C262.122 346.991 262.673 349.01 262.673 351.396C262.673 353.599 262.122 355.801 261.021 357.637C259.92 359.473 258.451 360.942 256.432 361.86C254.413 362.961 252.394 363.511 249.824 363.511C247.438 363.328 245.236 362.777 243.217 361.86ZM253.496 357.821C254.597 357.27 255.515 356.352 256.065 355.251C256.616 354.149 256.983 352.864 256.983 351.396C256.983 349.928 256.616 348.644 256.065 347.543C255.515 346.441 254.597 345.522 253.496 344.972C252.394 344.421 251.109 344.055 249.824 344.055C248.539 344.055 247.255 344.421 246.154 344.972C245.052 345.522 244.135 346.441 243.583 347.543C243.033 348.644 242.666 349.928 242.666 351.396C242.666 352.864 243.033 354.149 243.583 355.251C244.135 356.352 245.052 357.27 246.154 357.821C247.255 358.372 248.539 358.738 249.824 358.738C251.109 358.738 252.394 358.372 253.496 357.821ZM251.293 333.041H256.799L250.742 337.814H246.704L251.293 333.041Z" fill="#11C76F"/>
<path d="M271.299 361.858C269.463 360.757 267.811 359.472 266.71 357.637C265.609 355.801 265.058 353.782 265.058 351.396C265.058 349.01 265.609 346.991 266.71 345.155C267.811 343.32 269.28 341.852 271.299 340.934C273.318 340.016 275.337 339.466 277.723 339.466C279.742 339.466 281.578 339.832 283.229 340.567C284.882 341.301 286.166 342.218 287.268 343.687L283.781 346.808C282.128 344.972 280.292 344.054 277.907 344.054C276.439 344.054 275.153 344.421 274.052 344.972C272.95 345.523 272.033 346.44 271.482 347.542C270.931 348.643 270.565 349.928 270.565 351.396C270.565 352.865 270.931 354.15 271.482 355.251C272.033 356.352 272.95 357.27 274.052 357.82C275.153 358.371 276.439 358.738 277.907 358.738C280.292 358.738 282.128 357.82 283.781 355.985L287.268 359.106C286.166 360.39 284.698 361.492 283.229 362.226C281.578 362.96 279.742 363.327 277.723 363.327C275.337 363.327 273.318 362.776 271.299 361.858Z" fill="#11C76F"/>
<path d="M290.94 339.649H296.262V362.96H290.94V339.649Z" fill="#11C76F"/>
<path d="M306.541 361.859C304.522 360.758 303.053 359.472 301.952 357.637C300.851 355.801 300.3 353.782 300.3 351.396C300.3 349.194 300.851 346.991 301.952 345.156C303.053 343.32 304.522 341.852 306.541 340.934C308.56 339.833 310.579 339.282 313.149 339.282C315.718 339.282 317.737 339.833 319.756 340.934C321.775 342.035 323.244 343.32 324.346 345.156C325.447 346.991 325.997 349.01 325.997 351.396C325.997 353.599 325.447 355.801 324.346 357.637C323.244 359.472 321.775 360.941 319.756 361.859C317.737 362.96 315.718 363.51 313.149 363.51C310.579 363.51 308.56 362.777 306.541 361.859ZM316.82 357.82C317.921 357.27 318.839 356.352 319.389 355.251C319.94 354.149 320.307 352.864 320.307 351.396C320.307 349.927 319.94 348.643 319.389 347.542C318.839 346.44 317.921 345.522 316.82 344.972C315.718 344.421 314.433 344.054 313.149 344.054C311.864 344.054 310.579 344.421 309.478 344.972C308.376 345.522 307.459 346.44 306.908 347.542C306.357 348.643 305.99 349.927 305.99 351.396C305.99 352.864 306.357 354.149 306.908 355.251C307.459 356.352 308.376 357.27 309.478 357.82C310.579 358.371 311.864 358.738 313.149 358.738C314.617 358.738 315.718 358.371 316.82 357.82Z" fill="#11C76F"/>
<path d="M332.238 362.593C330.587 362.042 329.118 361.491 328.017 360.574L329.853 356.536C330.77 357.27 332.055 357.821 333.34 358.371C334.625 358.738 336.093 359.105 337.378 359.105C338.846 359.105 339.948 358.922 340.682 358.371C341.416 358.004 341.783 357.27 341.783 356.536C341.783 355.985 341.6 355.435 341.049 355.067C340.682 354.7 340.131 354.333 339.397 354.149C338.663 353.966 337.745 353.599 336.644 353.416C334.809 353.048 333.34 352.498 332.238 352.13C331.137 351.763 330.219 351.029 329.302 350.111C328.568 349.194 328.017 347.908 328.017 346.44C328.017 345.156 328.384 343.871 329.118 342.769C329.853 341.668 330.954 340.75 332.422 340.2C333.891 339.465 335.726 339.282 337.745 339.282C339.214 339.282 340.682 339.465 342.151 339.833C343.619 340.2 344.72 340.75 345.821 341.301L344.17 345.339C341.967 344.054 339.948 343.503 337.745 343.503C336.277 343.503 335.175 343.687 334.441 344.238C333.707 344.788 333.34 345.339 333.34 346.257C333.34 347.175 333.707 347.725 334.625 348.092C335.542 348.459 336.644 348.826 338.479 349.194C340.315 349.561 341.783 350.111 342.884 350.478C343.986 350.845 344.903 351.58 345.821 352.498C346.556 353.416 347.106 354.7 347.106 356.168C347.106 357.453 346.739 358.738 346.005 359.84C345.271 360.941 344.17 361.859 342.701 362.409C341.233 363.143 339.397 363.327 337.195 363.327C335.726 363.327 333.891 363.143 332.238 362.593Z" fill="#11C76F"/>
</g>
</svg>
